X: 19228
T: It Goes As Follies
R: reel
M: 4/4
K: Gmajor
gedB AGED|GFGA Bdef|gedB AGED|1 ~G3B A2ef:|2 EAAF G2GA||
BddB dega|bagb aged|BddB dega|1 bagb ~a3 z:|2 bagf g2ef||

